icons/solid/music-note.svg

<svg width="24" height="24" viewBox="0 0 24 24" fill="none" xmlns="http://www.w3.org/2000/svg">
<path fill-rule="evenodd" clip-rule="evenodd" d="M22 3.00001C22 2.69207 21.8581 2.40131 21.6154 2.2118C21.3727 2.0223 21.0562 1.95518 20.7575 2.02987L8.75746 5.02987C8.3123 5.14116 8 5.54114 8 6.00001V16.3912C7.3999 16.1365 6.7125 16 6 16C5.00168 16 4.05265 16.268 3.32398 16.7537C2.6023 17.2349 2 18.0093 2 19C2 19.9907 2.6023 20.7651 3.32398 21.2463C4.05265 21.732 5.00168 22 6 22C6.99832 22 7.94735 21.732 8.67602 21.2463C9.39691 20.7657 9.99868 19.9923 9.99999 19.0032C10 19.0022 10 19.0011 10 19V10.7808L20 8.28079V13.3912C19.3999 13.1365 18.7125 13 18 13C17.0017 13 16.0526 13.268 15.324 13.7537C14.6023 14.2349 14 15.0093 14 16C14 16.9907 14.6023 17.7651 15.324 18.2463C16.0526 18.732 17.0017 19 18 19C18.9983 19 19.9474 18.732 20.676 18.2463C21.3969 17.7657 21.9987 16.9923 22 16.0032C22 16.0022 22 16.0011 22 16V3.00001Z" fill="currentColor"/>
</svg>

<svg width="24" height="24" fill="none" xmlns="http://www.w3.org/2000/svg"><path fill-rule="evenodd" clip-rule="evenodd" d="M22 3a1 1 0 00-1.242-.97l-12 3A1 1 0 008 6v10.391A5.146 5.146 0 006 16c-.998 0-1.947.268-2.676.754C2.602 17.234 2 18.009 2 19c0 .99.602 1.765 1.324 2.246C4.053 21.732 5.002 22 6 22c.998 0 1.947-.268 2.676-.754.72-.48 1.323-1.254 1.324-2.243V10.78l10-2.5v5.111A5.146 5.146 0 0018 13c-.998 0-1.947.268-2.676.754C14.602 14.234 14 15.009 14 16c0 .99.602 1.765 1.324 2.246.729.486 1.678.754 2.676.754.998 0 1.947-.268 2.676-.754.72-.48 1.323-1.254 1.324-2.243V3z" fill="currentColor"/></svg>
